X:1
T:The Arsenic Tragedy
M:6/8
L:1/4
K:G
 D/2| D D/2 F G/2| A/2F/2 G/2- G A/2| F D/2 E ^C/2| D3/2- D F/2| A G/2 B A/2|\
 d/2- B =c B/2| A D/2 c B/2| A3/2- A F/2| A G/2 B A/2| d/2- B c D/2|\
 D- G/2 c B/2| A3/2- A D/4D/4| D D/2 F G/2|A/2-F/2 G/2- G A/2| F D/2 E ^C/2|\
 D3/2- D||
